X:250
T:Green Sleaves. RH.250
R:jig
S:Rev.R.Harrison’s MS,c1815,Cumbria
O:England
A:Temple Sowerby,Cumbria
Z:vmp.Simon Wilson. Review PJH, 2008.
M:6/8
L:1/8
Q:3/8=120
K:C
(A/B/)|c2c cde|dBG G2B|c2A ABA|G2E E2B|!
c2c cde|dBG G2B|cBA BA^G|A3 A2:|!
|:e/f/|g2g g^fe|dBG G2g|a2a aba|g2e e2f|!
gag g^fe|dBG GAB|cBA BA^G|A3 A2:|

